X: 25204
T: Malcolm Johnston
R: reel
M: 4/4
K: Adorian
|:AAAB AAAB|GGGA BBGB|AAAB AAAB|egBd eedB:|
BBef gagf|dBGA B/B/B GA|Beef gagf|egBd eedB|
BBef gagf|egGA B/B/B g2|fgaf gfea|edBd e2a2||
|:A/A/A A2 GAAB|BGGA BBGB|A/A/A A2 GAAB|eeAB eedB:|
eeef gBAB|dBGA B/B/B GB|eeef gBAB|eeAB eedB|
eeef gBAB|dBGA B/B/B g2|fgaf gfea|edBd e2a2||

